X:1
T:Title
%%score { ( 1 3 ) | ( 2 4 ) }
L:1/8
M:4/4
K:Eb
V:1 treble nm="Grand Piano"
V:3 treble 
V:2 bass 
V:4 bass 
V:1
 z4 z2[Q:1/4=100] [GB]2 | G3 G G2 G2 | [DB]2 [DA]2 G2 B2 | c3 c c2 [ce]2 | [Bd]2 [Ac]2 [GB]3 [GB] | %5
 [ce]3 [Bd] [Ac]2 [GB]2 | [Ec]3 [EB] [G,EG]2 [G,E]2 |[M:3/4] z2 .[B,G]2 z2 |] %8
V:2
 z4 z2 [E,B,]2 | [E,B,E]3 [E,B,E] [E,B,E]2 [E,B,E]2 | [B,,B,]2 [B,,B,]2 [E,B,E]2 [G,B,E]2 | %3
 [A,CE]3 [A,CE] [A,CE]2 [A,,A,]2 | [A,,A,]2 [A,,A,]2 [E,B,]3 [E,B,] | %5
 [E,C]3 [E,B,] [E,A,]2 [E,G,]2 | [A,,A,]3 [B,,G,] B,,2 B,,2 |[M:3/4] B,,2 z A, [E,G,]2 |] %8
V:3
 x8 | x8 | x8 | x8 | x8 | x8 | x8 |[M:3/4] [A,DF]2 D-[DF] E2 |] %8
V:4
 x8 | x8 | x8 | x8 | x8 | x8 | x8 |[M:3/4] z2 B,,2 z2 |] %8

